X: 121
T: The Joke
%R: reel
M: 2/4
L: 1/16
Z: 2014 John Chambers <jc:trillian.mit.edu>
B: Chas & Sam Thompson "Twenty Four Country Dances for the Year 1802", London 1802, p.12 #1
F: http://folkopedia.efdss.org/images/4/41/Thompson_24_1802.PDF
K: F
|:\
cAFf dB2d | cAFA GD2A/B/ |\
cAFf dB2d | cAGc AFF2 :|
|:\
fcac fcac | ecgc ecgc |\
Acfa gecB | AGFE F2F2 :|
% - - - - - - - - - - - - - - - - - - - - - - - - -
%%begintext align
%% Hands across & back again, Lead
%% down the Middle up again, & turn
%% your partner.
%%endtext
% - - - - - - - - - - - - - - - - - - - - - - - - -

%%sep 1 1 500
%%sep 1 1 500
